X:1
T:Red Apple Rag [1]
M:2/4
L:1/16
Q:122
S:from Cyril Stinnett
R:Reel
A:Missouri
N:Cyril stated that he learned this from hearing it played by Arthur
N:Smith on the Grand Old Opry over the radio in the 30's.  Apparently it
N:is an original composition by Arthur Smith.
D:as recorded by Cyril Stinnett on his album "Cyril Stinnett Plays His
D:Favorite Old Time Tunes.
Z:B. Shull, trans.; R. P. LaVaque, ABCs
K:G
DC|(B,C)D(F GF)GA|BdBA GBA(G|EF)G(A cB)c2|(ede)(c c)BcA|!
(d^cd)(e fe)d(e|fa)f(e e)de(f|gb)ge d(BA)F|G6:|!
B(c|d2)e(f gf)g2|(bab)(g g)a(ge)|cde(f gf)g(e|ag)e(c c)B(cA)|!
(d^cd)(e fe)d(e|fa)fe d2e(f|gb)ge d(BA)F|G6:|!

